X:1
T:Sonata in e-Moll, op. 5/8
T:Sonata in e-Moll
T:op. 5, Nr. 8
T:Arcangelo Corelli
T:Public Domain
T:Public Domain
T:Public Domain
T:Public Domain
T:Public Domain
C:Arcangelo Corelli
Z:Public Domain
%%score 1 2
L:1/8
Q:1/4=120
M:3/4
K:G
V:1 treble nm="Violine"
V:2 bass nm="Basso cont.	"
V:1
"^Preludio. Largo." B2 | e4 f2 | g4 a2 | b2 (ag) (fe) | ^d6 | e3 (d cB) | c3 d B2 | e2 A3 B | B6 | %9
 z2 f2 b2 | g6 | z2 e2 a2 | f6 | z2 g2 b2 | e2 a2 c'2 | f3 d (gd) | (cB) A4 | G2 g4 | z2 f4 | %19
 z2 e2 (fg) | ^A3 f (bf) | (ed) ^c4 | B4 :: f2 | (g2 b2) ^d2 | e4 b2 | (c'2 e'2) ^g2 | a4 e2 | %28
 =f2 A2 d2 | d3 e (cB) | (cd) B4 | A2 c4- | c2 (BA) (GF) | G2 E2 g2- | g2 (ag) (fe) | ^d2 B2 b2- | %36
 b2 e2 a2- | a2 g2 f2 | g2 f4 | e3 (d cB) | c2 (A2 Bc) | ^D3 B (eB) | (AG) F4 | E4 :| %44
[M:4/4][Q:1/4=120]"^Allegro." B | eBEg f B2 b | eECe ^d B,2 b | ^gBEg a A,2 a | fADf g G,2 b | %49
 a^cFa g E2 g | =fADf eC z b | ^deB,d EgfB | gBfB gBfB | e4 ^d2 B2 | E2 A2 B3 :: f | bfba g3 f/e/ | %57
 aeag f3 d | gdgf e(a/g/ f)(b/a/ | g)(c'/b/ a)(d'/c'/ b)d'dd' | ed'fd' gd'dd' | ed'fd' g(c'ba) | %62
 (b2 a2) g3 G | dAdc B3 B | eBed ^c3 c | f^cfe ^d2 z b | gbfb gbfb | gbfb (gb)(Bb) | %68
 (^cb)(^db) (ea)(gf) | g2 f2 e3 b | gbfb gbfb | gbfb (gb)(Bb) | (^cb)(^db) (ea)(gf) | (g2 f2) e3 :| %74
[M:3/4][Q:1/4=120]"^Largo." B2 e3 f | ^d4 e2 | (cB) c3 c | (c2 B4) | e2 A3 A | (A2 G2) B2 | %80
 e2 A3 B | B6 :: f2 b3 a | (gf) g4 | e2 a3 g | (fe) f4 | B2 e3 e | ^a3 f (bf) | (ed) ^c4 | B6 | %90
 B2 e3 d | (cB) c4 | A2 d3 c | (BA) B4 | E2 A3 A | ^d3 B (eB) | (AG) F4 | E6 :| %98
[M:12/8][Q:1/4=120]"^Allegro." B | GFE GBe ^d^cB z z e | cde Adc BAG z z b | abg fge ^def BcA | %102
 GBe Fe^d E3 z z g | afa bfb gfe z z b | c'ac' d'ad' bag z z b | aba d'c'd' g3 z z c' | %106
 fef bab e3 z ag | fed gab efg D2 f | G,3 z B^c ded ded | =cBA z c^d efe efe | ^d^cB b3- b2 e a3- | %111
 agf gfe ^dBe Fed | e3- e2 d c3 B2 ^D | EFG FGE ^D3- D2 :: f | fef Bgf g2 B E2 g | %116
 gfg cag a2 A D2 a | aga dba b2 d G2 b | b^c'd' c'd'b ^a3 z z f | ^g^ab ^cba b2 F B,2 b | %120
 ^gea Bag a2 E A,2 a | fdg Agf g2 D G,2 b | aba F2 a gag E2 g | fge fge ^d2 F B,2 B | %124
 cdB cdB A3- A2 G | A2 G A2 G =F3- F2 E | =FGE FGE ^D2 B E2 c | B2 e B,2 ^d E2 B e2 F | %128
 GBe B,2 ^d E3- E2 :| %129
V:2
 z2 | z2 z2 B,,2 | E,4 F,2 | G,2 A,4 | B,2 B,2 A,2 | ^G,6 | A,4 B,2 | C6 | B,2 B,,2 ^C,2 | ^D,6 | %10
 z2 E,2 D,2 | ^C,6 | z2 D,2 C,2 | B,,4 B,,2 | C,4 C,2 | D,4 B,,2 | C,2 D,4 | G,,2 B,,2 G,,2 | %18
 D,2 F,2 ^D,2 | E,2 G,2 E,2 | F,4 D,2 | E,2 F,2 F,,2 | B,,4 :: z2 | z2 z2 B,2 | C2 E2 ^G,2 | %26
 A,4 E2 | =F2 A2 ^C2 | D3 C B,A, | ^G,2 E,2 A,2 | D,2 E,2 E,,2 | A,,2 A,G, F,E, | ^D,4 D,2 | %33
 E,2 ED CB, | A,4 A,2 | B,4 G,2 | C4 A,2 | ^D,2 E,2 A,,2 | B,,2 B,,4 | E,2 ^G,,4 | A,,4 A,,2 | %41
 B,,4 G,,2 | A,,2 B,,4 | E,,4 :|[M:4/4] z | z2 z E DCDB, | C C,2 A, B,B,,^D,B,, | %47
 E, E,,2 E ^CE,A,,C | D D,2 D B,D,G,,G, | ^C,2 ^D,2 E,2 G,,2 | A,,2 B,,2 C,2 G,,2 | %51
 A,,2 B,,2 E,2 ^D,2 | E,2 ^D,2 E,2 =D,2 | C,4 B,,2 G,,2 | C,4 B,,3 :: z | z2 z B, EB,ED | %57
 ^C3 B,/A,/ DA,D=C | B,3 G, C2 D2 | E2 F2 G2 B,2 | C2 D2 E2 B,2 | C2 D2 E2 DC | D2 D,2 G,A,B,G, | %63
 F,3 D, G,A,B,A, | ^G,3 E, A,B,^CB, | ^A,3 F, B,^C^DB, | E2 ^D2 E2 D2 | E2 ^D2 E2 G,2 | %68
 A,2 B,2 C2 B,A, | B,2 B,,2 E,4 | E2 ^D2 E2 D2 | E2 ^D2 E2 G,2 | A,2 B,2 C2 B,A, | B,2 B,,2 E,3 :| %74
[M:3/4] E,F, G,E, G,A, | B,C B,A, G,E, | A,B, A,G, F,D, | G,F, G,A, B,G, | CB, A,G, F,E, | %79
 ^D,B,, E,F, =D,E, | C,B,, C,4 | B,,6 :: B,^C ^DB, CD | E^D EF E=D | ^CB, CA, B,C | D^C DD, F,D, | %86
 G,F, E,F, G,E, | F,G, F,E, D,B,, | E,^C, F,E, F,F,, | B,A, B,C B,A, | ^G,F, G,E, F,G, | %91
 A,^G, A,B, A,=G, | F,E, F,D, E,F, | G,F, G,A, B,G, | CD CB, A,C | B,C B,A, G,E, | A,F, B,2 B,,2 | %97
 E,6 :|[M:12/8] z | E,6 B,3 G,3 | A,3 F,3 G,3 G,,3 | A,,3 A,3 B,3 (2:3:2G,A, | B,3 B,,3 E,3 E3- | %103
 E3 ^D3 E3 G3- | G3 F3 G3 G,3- | G,3 F,6 E,3- | E,3 D,6 C,3- | C,3 B,,3 C,3 D,3 | %108
 G,,3 G,3 F,3 ^G,3 | A,3 A,3 G,3 A,3 | B,3 G,3 C3 A,3 | ^D,3 E,3 A,,3 B,,3 | E,3 ^G,,3 A,,3 B,,3 | %113
 C,6 B,,3- B,,2 :: z | z6 E3 E,3 | z6 F3 F,3 | z6 G3 G,3 | E,6 F,3 D,3 | E,3 F,3 B,,6 | %120
 E,3 E,,3 A,,6 | D,3 D,,3 G,,3- (2:3:2G,,G, | F,3- (2:3:2F,F, E,3- (2:3:2E,E, | %123
 A,,3- (2:3:2A,,A,, B,,3- (2:3:2B,,B, | E3 D3 C3- (2:3:2CB, | C3 B,3 A,3- (2:3:2A,G, | %126
 A,3 G,3 F,3 (2:3:2G,A, | B,3 B,,3 E,3 (2:3:2G,,A,, | B,,6 E,,3- E,,2 :| %129

